icon-svg/tube-lights.svg

<svg xmlns="http://www.w3.org/2000/svg" fill="#44739e" viewBox="0 0 24 24"><path d="m22 5.99-.171-.258-.8.532-.418-.622.8-.534-.171-.257-.8.534-.262-.391-1.2.787 1.289 1.924 1.2-.787-.266-.4zm-1.637 1.25-.915-1.365.633-.416L21 6.824Zm-17.878 9.5.266.4-.752.5.171.258.753-.5.417.622-.755.5.171.258.756-.5.262.391 1.2-.787-1.29-1.924zm1.384 1.46-.915-1.365.633-.416.913 1.364Zm.071-2.4226 14.8123-9.842 1.2817 1.929-14.8123 9.842Z"/></svg>

<?xml version="1.0" encoding="UTF-8"?>
<svg width="24px" fill="#44739e" height="24px" viewBox="0 0 24 24" version="1.1" xmlns="http://www.w3.org/2000/svg" xmlns:xlink="http://www.w3.org/1999/xlink">
            <path d="m 22,5.99 -0.171,-0.258 -0.8,0.532 -0.418,-0.622 0.8,-0.534 -0.171,-0.257 -0.8,0.534 -0.262,-0.391 -1.2,0.787 1.289,1.924 1.2,-0.787 -0.266,-0.4 z M 20.363,7.24 19.448,5.875 20.081,5.459 21,6.824 Z m -17.878,9.5 0.266,0.4 -0.752,0.5 0.171,0.258 0.753,-0.5 0.417,0.622 -0.755,0.5 0.171,0.258 0.756,-0.5 0.262,0.391 1.2,-0.787 -1.29,-1.924 z M 3.869,18.2 2.954,16.835 3.587,16.419 4.5,17.783 Z M 3.9399556,15.777396 18.752283,5.935364 20.034006,7.8643649 5.2216777,17.706397 Z"/>

</svg>
